!!!COM: Anonymous
!!!CDT: [?]
!!!OTL@@POL: Gwiazdo morza głębokiego
!!!TXO: Polish
!!!ODT: 
!!!GTL: Hymnbook E
!!!ARL: Opactwo św. Wojciecha, Staniątki 
!!!voices:	3
**kern	**kern	**text	**kern	**text
*staff3	*staff2	*staff2	*staff1	*staff1
*I"Basso	*I"Canto II	*	*I"Canto I	*
=1-	=1-	=1-	=1-	=1-
*clefF4	*clefG2	*	*clefG2	*
*k[b-]	*k[b-]	*	*k[b-]	*
*met(c|)	*met(c|)	*	*met(c|)	*
*M2/2	*M2/2	*	*M2/2	*
1G	1g	Gwia-	1g	Gwia-
=2	=2	=2	=2	=2
2G	4b-	-zdo	4dd	-zdo
.	4a	.	4cc#	.
2G	4b-	mo-	4dd	mo-
.	4cc#	.	4ee	.
=3	=3	=3	=3	=3
2D	2dd	-rza	2ff	-rza
[2G	[2bn	głę-	[2gg	głę-
=4	=4	=4	=4	=4
4G]	4b]	.	4gg]	.
4A	4cc#	.	4ff	.
2B-	[2dd	-bo-	4ee	-bo-
.	.	.	4dd	.
=5	=5	=5	=5	=5
1A	2dd]	.	1ee	-kie-
.	2cc#	-kie-	.	.
=6	=6	=6	=6	=6
1D	1dd	-go	1dd	-go
=7	=7	=7	=7	=7
1G	1b-	Ma-	1dd	Ma-
=8	=8	=8	=8	=8
2G	2g	-tko	2b-	-tko
2F	2a	Bo-	2cc	Bo-
=9	=9	=9	=9	=9
2BB-	2b-	-ga	2dd	-ga
[2F	[2a	naj-	[2cc	naj-
=10	=10	=10	=10	=10
2F]	2a]	.	4cc]	.
.	.	.	4b-	.
2G	[2g	-wyż-	4a	-wyż-
.	.	.	4g	.
=11	=11	=11	=11	=11
1D	2g]	.	1a	-sze-
.	2f#	-sze-	.	.
=12	=12	=12	=12	=12
1GG	1g	-go	1g	-go
=13	=13	=13	=13	=13
=	=	=	=	=
1G	1g	Pa-	1b-	Pa-
=14	=14	=14	=14	=14
2G	2g	-nien-	2b-	-nien-
2F	2a	-ko	2cc	-ko
=15	=15	=15	=15	=15
2D	2b-	bądź	2dd	bądź
[2C	[2cc	po-	[2ee-	po-
=16	=16	=16	=16	=16
2C]	4cc]	.	4ee-]	.
.	4b-	.	4dd	.
2BB-	[2b-	-zdro-	4cc	-zdro-
.	.	.	4b-	.
=17	=17	=17	=17	=17
1F	2b-]	.	1cc	-wio-
.	2a	-wio-	.	.
=18	=18	=18	=18	=18
1BB-	1b-	-na	1dd	-na
=19	=19	=19	=19	=19
1D	1f#	Fur-	1a	Fur-
=20	=20	=20	=20	=20
2E-	2g	-to	2b-	-to
2C	2a	raj-	2cc	raj-
=21	=21	=21	=21	=21
2BB-	2b-	-ska	2dd	-ska
[2C	[2a	o-	[2cc	o-
=22	=22	=22	=22	=22
4C]	2a]	.	4cc]	.
4D	.	.	4b-	.
2E-	[2g	-two-	4a	-two-
.	.	.	4b-	.
=23	=23	=23	=23	=23
1D	2g]	.	1a	-rzo-
.	2f#	-rzo-	.	.
=24	=24	=24	=24	=24
[1GG	[1g	-na.	[1g	-na.
=25	=25	=25	=25	=25
1GG]	1g]	.	1g]	.
==:|!	==:|!	==:|!	==:|!	==:|!
*-	*-	*-	*-	*-
!!!GTL: Hymnbook E
!!!EFL: 17/117
!!!YEM: Creative Commons CC/BY/NC/SA 4.0
!!!ENC: Marcin Konik
!!!END: 
!!!EED: Marcin Konik
!!!EEV: 
!!!ONB: Translated from MusicXML and edited by Marcin Konik
!!!CharacterEncoding: utf-8
!!!RDF**kern: l=long note in original notation
!!!RDF**kern: i=editorial accidental
!!muse2ps: z14jc180F
